public/avatar/shoe/73.svg

<svg xmlns:xlink="http://www.w3.org/1999/xlink" height="38.3" width="36.05" xmlns="http://www.w3.org/2000/svg"><use height="14.95" transform="translate(10.05 13.75)" width="22.1" xlink:href="#a"/><defs><g id="a" fill-rule="evenodd"><path d="M1.1.1q3.85-.3 4.9 1 1.65 2.1 1.5 5.7-9.4 6-20.15 4.5-.75-1.45.65-3.05 3.75-4.1 6.5-5.9Q-2.7.5 1.1.1" fill="#005094" transform="translate(13.75 1.1)"/><path d="m7.5 6.8-.15 1q-8.3 6.95-19.4 4.4l-.6-.9Q-1.9 12.8 7.5 6.8" fill="#e8b837" transform="translate(13.75 1.1)"/><path d="m8.25 7.95-.35.7q-8.55 7.1-20.15 4.5l-.3-.15-.8-1.2-.2-.4q-.65-2.05 1-3.85l.4-.45Q-9.9 3.85-6.5 1.55q3.35-2.35 7.55-2.6Q5.25-1.3 6.65.4q1.85 2.4 1.7 6.5l-.1 1.05m-1.6-1.8Q6.6 3.4 5.35 1.8 4.6.85 1.2 1.2q-3.75.35-6.25 2-3.5 2.35-5.85 5.25l-.45.55q-.65.7-.65 1.3v.1q10.1 1 18.65-4.25" transform="translate(13.75 1.1)"/><path d="M1.1.1q3.85-.3 4.9 1 1.65 2.1 1.5 5.7-9.4 6-20.15 4.5-.75-1.45.65-3.05 3.75-4.1 6.5-5.9Q-2.7.5 1.1.1" fill="#005094" transform="translate(13.75 1.1)"/><path d="m7.5 6.8-.15 1q-8.3 6.95-19.4 4.4l-.6-.9Q-1.9 12.8 7.5 6.8" fill="#e8b837" transform="translate(13.75 1.1)"/><path d="M-8.7 4.8-4.8 2q2.95 1.55 2.25 3-.7 1.35-3.1 1.2L-8.7 4.8" fill="#00407a" transform="translate(13.75 1.1)"/><path d="M4.3.25q3.3 1.05 3 5.45-1.5.1-5.45-1.3-4.45-1.65-4.4-3.3Q-2.1.7-.1.25q2.15-.8 4.4 0" fill="#00325a" transform="translate(13.75 1.1)"/></g></defs></svg>

<?xml version="1.0" encoding="UTF-8" standalone="no"?>
<svg xmlns:xlink="http://www.w3.org/1999/xlink" height="38.3px" width="36.05px" xmlns="http://www.w3.org/2000/svg">
  <g transform="matrix(1.0, 0.0, 0.0, 1.0, 23.8, 14.85)">
    <use height="14.95" transform="matrix(1.0, 0.0, 0.0, 1.0, -13.75, -1.1)" width="22.1" xlink:href="#shape0"/>
  </g>
  <defs>
    <g id="shape0" transform="matrix(1.0, 0.0, 0.0, 1.0, 13.75, 1.1)">
      <path d="M1.1 0.1 Q4.95 -0.2 6.0 1.1 7.65 3.2 7.5 6.8 -1.9 12.8 -12.65 11.3 -13.4 9.85 -12.0 8.25 -8.25 4.15 -5.5 2.35 -2.7 0.5 1.1 0.1" fill="#005094" fill-rule="evenodd" stroke="none"/>
      <path d="M7.5 6.8 L7.35 7.8 Q-0.95 14.75 -12.05 12.2 L-12.65 11.3 Q-1.9 12.8 7.5 6.8" fill="#e8b837" fill-rule="evenodd" stroke="none"/>
      <path d="M8.25 7.95 L7.9 8.65 Q-0.65 15.75 -12.25 13.15 L-12.55 13.0 -13.35 11.8 -13.55 11.4 Q-14.2 9.35 -12.55 7.55 L-12.15 7.1 Q-9.9 3.85 -6.5 1.55 -3.15 -0.8 1.05 -1.05 5.25 -1.3 6.65 0.4 8.5 2.8 8.35 6.9 L8.25 7.95 M6.65 6.15 Q6.6 3.4 5.35 1.8 4.6 0.85 1.2 1.2 -2.55 1.55 -5.05 3.2 -8.55 5.55 -10.9 8.45 L-11.35 9.0 Q-12.0 9.7 -12.0 10.3 L-12.0 10.4 Q-1.9 11.4 6.65 6.15" fill="#000000" fill-rule="evenodd" stroke="none"/>
      <path d="M1.1 0.1 Q4.95 -0.2 6.0 1.1 7.65 3.2 7.5 6.8 -1.9 12.8 -12.65 11.3 -13.4 9.85 -12.0 8.25 -8.25 4.15 -5.5 2.35 -2.7 0.5 1.1 0.1" fill="#005094" fill-rule="evenodd" stroke="none"/>
      <path d="M7.5 6.8 L7.35 7.8 Q-0.95 14.75 -12.05 12.2 L-12.65 11.3 Q-1.9 12.8 7.5 6.8" fill="#e8b837" fill-rule="evenodd" stroke="none"/>
      <path d="M-8.7 4.8 L-4.8 2.0 Q-1.85 3.55 -2.55 5.0 -3.25 6.35 -5.65 6.2 L-8.7 4.8" fill="#00407a" fill-rule="evenodd" stroke="none"/>
      <path d="M4.3 0.25 Q7.6 1.3 7.3 5.7 5.8 5.8 1.85 4.4 -2.6 2.75 -2.55 1.1 -2.1 0.7 -0.1 0.25 2.05 -0.55 4.3 0.25" fill="#00325a" fill-rule="evenodd" stroke="none"/>
    </g>
  </defs>
</svg>
